!!!id: BC046
!!!page: 58-59
!!!COM: Bernard, Paul
!!!LYR: Bernard, Paul
!!!PTL@@FR: Les 100 plus belles chansons
!!!OTL@@FR: Ça fait peur aux oiseaux
!!!PUB: La Bonne Chanson, inc.
!!!YEM: On ne peut reproduire, enregistrer ou diffuser en tout ou en partie le présent ouvrage, sous quelque procédé que ce soit, électronique, mécanique, photographique, sonore, magnétique ou autre, sans avoir obtenu au préalable l'autorisation écrite de l'éditrice.
!!!PDT: 2011
!!!SMA:2012 Bibliothèque nationale du Québec; Biblothèque nationale du Canada
!!!AGN-Laforte: Chanson strophique (avec refrain intégré varié), 3:8(7)
!!!AGN-type: Chanson d'amour
!!!AGN-rime: croisées (ababcdcd)
!!!LYR-elision: Medial "e" (f'rait)
**kern	**dynam	**text	**text	**text
*clefG2	*	*	*	*
*k[b-e-]	*	*	*	*
*g:	*	*	*	*
!!LO:TX:a:B:t=Andantino
*M3/4	*	*	*	*
*	*	*v:1	*v:2	*v:3
*	*	*pline:1	*pline:9	*pline:17
=1	=1	=1	=1	=1
{{8dd	pp	Ne	Bon,	Vous
8dd	.	par-	vous	te-
8dd	.	-lez	m'ap-	-nez
8dd	.	pas	-pe-	ma
8dd	.	tant,	-lez	main,
8ee-	.	Li-	cru-	Li-
=2	=2	=2	=2	=2
4dd	.	-san-	-el-	-san-
8cc	.	-dre,	-le,	-dre,
*	*	*rp:ɑ̃	*rp:ɛ	*rp:ɑ̃
*	*	*rf:ɑ̃dʁ,ə	*rf:ɛl,ə	*rf:ɑ̃dʁ,ə
*	*	*rs:a1	*rs:e1	*rs:a1
*	*	*pline:2	*pline:10	*pline:18
8cc	.	Quand	Vrai-	Com-
8cc	.	nous	-ment,	-ment
8dd	.	ten-	vous	puis-
!!LO:PB:g=original
=3	=3	=3	=3	=3
8cc	.	-dons	per-	-je
8r	.	.	.	.
8b-	.	nos	-dez	vous
8r	.	.	.	.
8a	.	fi-	l'e-	ai-
8r	.	.	.	.
=4	=4	=4	=4	=4
2b-}	.	-lets;	-sprit;	-der?
*	*	*rp:ɛ	*rp:i	*rp:e
*	*	*rf:lɛ	*rf:ʁi	*rf:de
*	*	*rs:b1-	*rs:f1-	*rs:g1-
4r	.	.	.	.
=5	=5	=5	=5	=5
*	*	*pline:3	*pline:11	*pline:19
{8b-	.	Les	Vous	Il
8b-	.	oi-	me	fau-
8b-	.	-seaux	cro-	-drait,
8b-	.	vont	-yez	à
8b-	.	vous	in-	vous
8cc	.	en-	-fi-	en-
!!LO:PB:g=original
=6	=6	=6	=6	=6
4b-	.	-ten-	-dè-	-ten-
8a	.	-dre,	-le...	-dre,
*	*	*rp:ɑ̃	*rp:ɛ	*rp:ɑ̃
*	*	*rf:ɑ̃dʁ,ə	*rf:ɛl,ə	*rf:ɑ̃dʁ,ə
*	*	*rs:a1	*rs:e1	*rs:a1
*	*	*pline:4	*pline:12	*pline:20
8a	.	Et	Ne	Vous
8a	.	s'en-	fai-	ac-
8b-	.	-fui-	-tes	-cor-
=7	=7	=7	=7	=7
8a	.	-ront	pas	-der
8r	.	.	.	.
8g	.	des	tant	un
8r	.	.	.	.
8f#	.	bos-	de	bai-
8r	.	.	.	.
=8	=8	=8	=8	=8
2g}}	.	-quets.	bruit.	-ser.
*	*	*rp:ɛ	*rp:i	*rp:e
*	*	*rf:kɛ	*rf:ʁɥi	*rf:ze
*	*	*rs:b2-	*rs:f2-	*rs:g2-
4r	.	.	.	.
!!LO:PB:g=original
=9	=9	=9	=9	=9
*	*	*pline:5	*pline:13	*pline:21
{{8f#	<	Ai-	Quoi!	Ah!
8g	.	-mez-	vous	pre-
8a	.	-moi	par-	-nez-
8cc	.	sans	-lez	-en
8b-	.	me	de	deux
8a	.	le	vous	bien
=10	=10	=10	=10	=10
(8b-L	.	di-	pen-	vi-
8a)J	.	.	.	.
4g}	.	-re,	-dre,	-te,
*	*	*rp:i	*rp:ɑ̃	*rp:i
*	*	*rf:iʁ,ə	*rf:ɑ̃dʁ,ə	*rf:it,ə
*	*	*rs:c1	*rs:a1	*rs:c2
4r	.	.	.	.
=11	=11	=11	=11	=11
*	*	*pline:5r	*pline:13r	*pline:21r
{8a	f	Ai-	Quoi!	Ah!
8b-	.	-mez-	vous	pre-
8cc	.	-moi	par-	-nez-
8ee-	.	sans	-lez	-en
8dd	.	me	de	deux
8cc	.	le	vous	bien
!!LO:PB:g=original
=12	=12	=12	=12	=12
(8ddL	.	di-	pen-	vi-
8ccJ)	.	.	.	.
4b-}	.	-re,	-dre,	-te,
*	*	*rp:i	*rp:ɑ̃	*rp:i
*	*	*rf:iʁ,ə	*rf:ɑ̃dʁ,ə	*rf:it,ə
*	*	*rs:c1	*rs:a1	*rs:c2
4r	.	.	.	.
=13	=13	=13	=13	=13
*	*	*pline:6	*pline:14	*pline:22
{8b-	.	A	Aux	Et
8b-	.	quoi	bran-	re-
8b-	.	bon	-ches	-tour-
8cc	.	tous	de	-nez
8cc	.	ces	ces	aux
8dd	.	grands	or-	pi-
=14	=14	=14	=14	=14
[2.dd	.	mots?	-meaux!...	-peaux.
*	*	*rp:o	*rp:o	*rp:o
*	*	*rf:mo	*rf:mo	*rf:po
*	*	*rs:d1-	*rs:d1-	*rs:d
=15	=15	=15	=15	=15
4dd]}}	.	.	.	.
4r	.	.	.	.
4r	.	.	.	.
!!LO:PB:g=original
=16	=16	=16	=16	=16
*	*	*pline:7	*pline:15	*pline:23
!!LO:TX:a:i:t=simplement
{{8dd	pp	Cal-	Mais	Mieux
8dd	.	-mez	vous	vaut
8dd	.	ce	sa-	en
8dd	.	bruy-	-vez	fi-
8dd	.	-ant	bien,	-nir
8ee-	.	dé-	Li-	de
=17	=17	=17	=17	=17
4dd	.	-li-	-san-	sui-
8cc	.	-re,	-dre,	-te,
*	*	*rp:i	*rp:ɑ̃	*rp:i
*	*	*rf:iʁ,ə	*rf:ɑ̃dʁ,ə	*rf:it,ə
*	*	*rs:c1	*rs:a1	*rs:c2
*	*	*pline:8	*pline:16=8v	*pline:24=8
*	*	*refrain	*refrain	*refrain
*	*	*italic	*italic	*italic
8cc	.	Car	Que	Car
8cc	.	ça	ça	ça
8dd	.	fait	f'rait	fait
!!LO:PB:g=original
=18	=18	=18	=18	=18
4cc	.	peur	peur	peur
4b-	.	aux	aux	aux
4a	.	oi-	oi-	oi-
=19	=19	=19	=19	=19
2b-}	.	-seaux;	-seaux,	-seaux,
*	*	*Xitalic	*Xitalic	*Xitalic
*	*	*Xrefrain	*Xrefrain	*Xrefrain
*	*	*rp:o	*rp:o	*rp:o
*	*	*rf:zo	*rf:zo	*rf:zo
*	*	*rs:d2-	*rs:d2-	*rs:d2-
4r	.	.	.	.
=20	=20	=20	=20	=20
*	*	*pline:7r	*pline:15r	*pline:23r
{8b-	.	Cal-	Mais	Mieux
8b-	.	-mez	vous	vaut
8b-	.	ce	sa-	en
8b-	.	bruy-	-vez	fi-
8b-	.	-ant	bien,	-nir
8cc	.	dé-	Li-	de
!!LO:PB:g=original
=21	=21	=21	=21	=21
4b-	.	-li-	-san-	sui-
8a	.	-re,	-dre,	-te,
*	*	*rp:i	*rp:ɑ̃	*rp:i
*	*	*rf:iʁ,ə	*rf:ɑ̃dʁ,ə	*rf:it,ə
*	*	*rs:c1	*rs:a1	*rs:c2
*	*	*pline:8r	*pline:16=8mr	*pline:24r=8
*	*	*refrain	*refrain	*refrain
*	*	*italic	*italic	*italic
8a	.	Car	Que	Car
8a	.	ça	ça	ça
8b-	.	fait	f'rait	fait
=22	=22	=22	=22	=22
4a	.	peur	peur	peur
4g	.	aux	aux	aux
4f#	.	oi-	oi-	oi-
=23	=23	=23	=23	=23
[2.g	.	-seaux!	-seaux.	-seaux.
*	*	*rp:o	*rp:o	*rp:o
*	*	*rf:zo	*rf:zo	*rf:zo
*	*	*rs:d2-	*rs:d2-	*rs:d2-
*	*	*Xitalic	*Xitalic	*Xitalic
*	*	*Xrefrain	*Xrefrain	*Xrefrain
=24	=24	=24	=24	=24
2g]}}	.	.	.	.
4r	.	.	.	.
==	==	==	==	==
*-	*-	*-	*-	*-
!!!EED: Isaac Howie
!!!EEV: 2025/07/01
!!!EED: Ève Poudrier
!!!EEV: 2025/07/30
